packages/ui/src/lib/icons/svg/bell.svg

<svg width="100%" height="100%" viewBox="0 0 16 16" fill="none" xmlns="http://www.w3.org/2000/svg">
<path d="M8 1.75C10.1631 1.75 11.917 3.50388 11.917 5.66699V7.16602L11.9873 7.31738L13.8223 11.25H2.17773L4.0127 7.31738L4.08301 7.16602V5.66699C4.08301 3.50388 5.83689 1.75 8 1.75Z" stroke="currentColor" stroke-width="1.5"/>
<path d="M7 11L6 14H10L9 11" stroke="currentColor" stroke-width="1.5"/>
</svg>

<svg xmlns="http://www.w3.org/2000/svg" fill="none" viewBox="0 0 16 16" width="100%" height="100%"><path stroke="currentColor" stroke-width="1.5" d="M8 1.75a3.917 3.917 0 0 1 3.917 3.917v1.499l.07.151 1.835 3.933H2.178l1.835-3.933.07-.151V5.667A3.917 3.917 0 0 1 8 1.75Z"/><path stroke="currentColor" stroke-width="1.5" d="m7 11-1 3h4l-1-3"/></svg>
